X:1
T:Title
%%score { ( 1 3 ) | 2 }
L:1/8
M:4/4
K:D
V:1 treble nm="Grand Piano"
V:3 treble 
V:2 bass 
V:1
 z4 z2[Q:1/4=100] [DF][EG] | [FA]2 [FA]>[FA] [FA]2 [=F^G][=GB] | [FA]6 [DF][FA] | %3
 [Fd]2 [Fd][Fd] [Fd]2 [Ec][Ge] | [Fd]6 [FA][FA] | B2 B>B d2 [Ac][GB] | [FA]2 [DF][DF] [FA]2 FF | %7
 E2 [EA]>[FB] cd B2 |[M:3/4] [A,CA]6 |[M:1/4] AA |[M:4/4] [Fd]2 [Fd]>[Fd] [Fd][Ac] [GB]2 | %11
 A-[FA-] [FA-]2 [FA]2 [FA][FA] | B2 B>B [FA][FA] [DF]2 | E6 z2 | .F2 FF .G2 GG | %15
[M:9/8] .A2 [FA] [FA] B2- Bdd |[M:4/4] d2 d>d [Gc][GB] [Gc]2 |[M:3/4] [Fd]6 |] %18
V:2
 z4 z2 [D,A,][D,A,] | [D,D]2 [D,D]>[D,D] [D,D]2 [D,D][D,D] | [D,D]6 [D,A,][D,A,] | %3
 [D,A,]2 [D,A,][D,A,] [D,A,]2 [A,,A,][A,,A,] | [D,A,]6 [D,D][D,D] | %5
 [G,DG]2 [G,DG]>[G,DG] [G,B,G]2 [G,D][K:bass][G,D] | [D,D]2 [D,A,][D,A,] [D,D]2 [D,A,D][D,A,D] | %7
 [E,A,C]2 [C,A,]>[D,A,] [E,A,E][E,B,E] [E,^G,D]2 |[M:3/4] A,,6 |[M:1/4] A,A, | %10
[M:4/4] [D,A,]2 [D,A,]>[D,A,] [D,A,][D,D] [D,D]2 | [D,D][D,D] [D,D]2 [D,D]2 [D,D][D,D] | %12
 [G,DG]2 [G,DG]>[G,DG][K:bass] [D,D][D,D] [D,A,]2 | %13
 [A,,A,][A,,A,] [A,,A,]2 [A,,A,]2 [A,,A,][A,,A,] | %14
 .[D,A,D]2 [D,A,D][D,A,D] .[E,A,C]2 [E,A,C][E,A,C] | %15
[M:9/8] .[F,A,D]2 [D,D] [D,D][K:treble] [G,DG]2- [G,DG][^G,B,=F][G,B,F] | %16
[M:4/4] [A,F]2 [A,F]>[A,F][K:bass] [A,,A,][A,,A,] [A,,A,]2 |[M:3/4] [D,A,]6 |] %18
V:3
 x8 | x8 | x8 | x8 | x8 | x8 | x8 | x8 |[M:3/4] x6 |[M:1/4] x2 |[M:4/4] x8 | .F2 z2 z4 | x8 | %13
 CC C2 C2 [CE][CE] | x8 |[M:9/8] x9 |[M:4/4] x8 |[M:3/4] x6 |] %18

